src/img/GithubLogo.svg

<svg xmlns="http://www.w3.org/2000/svg" style="isolation:isolate" viewBox="0 0 500 570" width="500" height="570"><defs><clipPath id="a"><path d="M0 0h500v570H0z"/></clipPath></defs><g clip-path="url(#a)"><clipPath id="b"><path fill="#FFF" d="M0 110h500v500H0z"/></clipPath><g fill="#568AF2" clip-path="url(#b)"><path d="M205.819 305.202c0-8.142 6.673-14.753 14.891-14.753 8.219 0 14.891 6.611 14.891 14.753 0 8.143-6.672 14.753-14.891 14.753-8.218 0-14.891-6.61-14.891-14.753zm57.437 0c0-8.142 6.673-14.753 14.891-14.753 8.219 0 14.891 6.611 14.891 14.753 0 8.143-6.672 14.753-14.891 14.753-8.218 0-14.891-6.61-14.891-14.753z"/><path d="M469.205 336.268c7.727 13.301 7.727 34.067 0 47.464l-88.861 152.536C372.618 549.569 354.363 560 338.909 560H156.455c-1.062-.096-6.857-.383-16.226-5.455-6.568-3.54-15.551-9.665-20.573-18.277L30.795 383.732c-7.727-13.301-7.727-34.163 0-47.464l88.861-152.536C127.382 170.431 145.637 160 161.091 160h177.818c15.454 0 33.709 10.431 41.435 23.732l88.861 152.536zm-306.652-8.659c-.009.015-.013.031-.013.047v217.703c70.895-29.665 174.147-104.115 176.369-210.335v-7.081c0-.013-.003-.026-.01-.038-.633-48.522-39.9-87.717-88.175-87.717-48.176 0-87.381 39.036-88.171 87.421zm296.22 50.094c5.602-9.665 5.602-25.933.097-35.502l-88.86-152.536c-5.602-9.569-19.801-17.703-31.005-17.703H161.188c-11.204 0-25.402 8.134-31.004 17.703L41.323 342.201c-5.602 9.665-5.602 25.933 0 35.502l88.861 152.536c2.801 4.881 8.499 9.761 15.936 13.78 1.642.957 3.091 1.531 4.443 2.105V327.656c0-25.072 9.563-47.847 25.113-65.264l8.403-8.325c17.579-15.407 40.567-24.88 65.873-24.88 25.306 0 48.293 9.473 65.872 24.88l8.5 8.421c15.55 17.416 25.113 40.287 25.113 65.263l-10.528 220.192c11.204 0 25.402-8.134 31.004-17.704l88.86-152.536z"/></g><text transform="translate(111.158 93.885)" font-family="Open Sans" font-weight="400" font-size="100" fill="#568af2">GWvP</text><text transform="translate(119 135.377)" font-family="Open Sans" font-weight="400" font-size="20" fill="#568af2">A free serverless web editor</text></g></svg>

<?xml version="1.0" standalone="no"?><!-- Generator: Gravit.io --><svg xmlns="http://www.w3.org/2000/svg" xmlns:xlink="http://www.w3.org/1999/xlink" style="isolation:isolate" viewBox="0 0 500 570" width="500" height="570"><defs><clipPath id="_clipPath_476mxuop2F1fPuTi91JF9dw0ORZ1ywTj"><rect width="500" height="570"/></clipPath></defs><g clip-path="url(#_clipPath_476mxuop2F1fPuTi91JF9dw0ORZ1ywTj)"><clipPath id="_clipPath_sqNpajLsitt48gR7IUPhwiuNW4epq0LQ"><rect x="0" y="110" width="500" height="500" transform="matrix(1,0,0,1,0,0)" fill="rgb(255,255,255)"/></clipPath><g clip-path="url(#_clipPath_sqNpajLsitt48gR7IUPhwiuNW4epq0LQ)"><g id="Group"><path d=" M 205.819 305.202 C 205.819 297.06 212.492 290.449 220.71 290.449 C 228.929 290.449 235.601 297.06 235.601 305.202 C 235.601 313.345 228.929 319.955 220.71 319.955 C 212.492 319.955 205.819 313.345 205.819 305.202 Z " fill="rgb(86,138,242)"/><path d=" M 263.256 305.202 C 263.256 297.06 269.929 290.449 278.147 290.449 C 286.366 290.449 293.038 297.06 293.038 305.202 C 293.038 313.345 286.366 319.955 278.147 319.955 C 269.929 319.955 263.256 313.345 263.256 305.202 Z " fill="rgb(86,138,242)"/><path d=" M 469.205 336.268 C 476.932 349.569 476.932 370.335 469.205 383.732 L 380.344 536.268 C 372.618 549.569 354.363 560 338.909 560 L 156.455 560 C 155.393 559.904 149.598 559.617 140.229 554.545 C 133.661 551.005 124.678 544.88 119.656 536.268 L 30.795 383.732 C 23.068 370.431 23.068 349.569 30.795 336.268 L 119.656 183.732 C 127.382 170.431 145.637 160 161.091 160 L 338.909 160 C 354.363 160 372.618 170.431 380.344 183.732 L 469.205 336.268 L 469.205 336.268 Z  M 162.553 327.609 C 162.544 327.624 162.54 327.64 162.54 327.656 L 162.54 329.099 L 162.54 329.099 L 162.54 545.359 L 162.54 545.359 C 233.435 515.694 336.687 441.244 338.909 335.024 L 338.909 329.099 L 338.909 329.099 L 338.909 327.943 C 338.909 327.93 338.906 327.917 338.899 327.905 C 338.266 279.383 298.999 240.188 250.724 240.188 C 202.548 240.188 163.343 279.224 162.553 327.609 Z  M 458.773 377.703 C 464.375 368.038 464.375 351.77 458.87 342.201 L 370.01 189.665 C 364.408 180.096 350.209 171.962 339.005 171.962 L 161.188 171.962 C 149.984 171.962 135.786 180.096 130.184 189.665 L 41.323 342.201 C 35.721 351.866 35.721 368.134 41.323 377.703 L 130.184 530.239 C 132.985 535.12 138.683 540 146.12 544.019 C 147.762 544.976 149.211 545.55 150.563 546.124 L 150.563 327.656 C 150.563 302.584 160.126 279.809 175.676 262.392 L 184.079 254.067 C 201.658 238.66 224.646 229.187 249.952 229.187 C 275.258 229.187 298.245 238.66 315.824 254.067 L 324.324 262.488 C 339.874 279.904 349.437 302.775 349.437 327.751 L 338.909 547.943 C 350.113 547.943 364.311 539.809 369.913 530.239 L 458.773 377.703 L 458.773 377.703 Z " fill="rgb(86,138,242)"/></g></g><g transform="matrix(1,0,0,1,111,-13)"><text transform="matrix(1,0,0,1,0.158,106.885)" style="font-family:&quot;Open Sans&quot;;font-weight:400;font-size:100px;font-style:normal;fill:#568af2;stroke:none;">GWvP</text></g><g transform="matrix(1,0,0,1,119,114)"><text transform="matrix(1,0,0,1,0,21.377)" style="font-family:&quot;Open Sans&quot;;font-weight:400;font-size:20px;font-style:normal;fill:#568af2;stroke:none;">A free serverless web editor</text></g></g></svg>
